;FLAVOR:Marlin
;TIME:7075
;Filament used: 6.29562m
;Layer height: 0.2
;MINX:77.9
;MINY:60.369
;MINZ:0.2
;MAXX:187.671
;MAXY:184.519
;MAXZ:28.4
;Generated with Cura_SteamEngine 4.12.1
M140 S60
M105
M190 S60
M104 S210
M105
M109 S210
M82 ;absolute extrusion mode
G28 ; home all axes
G92 E0 ; reset extrusion distance
G1 E25 F300 ; purge nozzle
G1 X20 Y0 Z0.15 F1200 ; wipe
G92 E0
G92 E0
G1 F2400 E-0.6
;LAYER_COUNT:142
;LAYER:0
M107
G0 F3600 X82.177 Y67.88 Z0.2
;TYPE:SKIRT
G1 F2400 E0
G1 F1500 X82.613 Y67.44 E0.0206
G1 X82.908 Y67.198 E0.03329
G1 X83.478 Y66.768 E0.05704
G1 X84.06 Y66.355 E0.08078
G1 X84.588 Y66.031 E0.10138
G1 X85.153 Y65.778 E0.12197
G1 X85.746 Y65.599 E0.14257
G1 X86.358 Y65.499 E0.1632
G1 X86.743 Y65.477 E0.17602
G1 X87.479 Y65.464 E0.20051
G1 X87.635 Y65.464 E0.2057
G1 X88.179 Y65.472 E0.22379
G1 X88.796 Y65.521 E0.24438
G1 X89.402 Y65.649 E0.26498
G1 X89.986 Y65.854 E0.28556
G1 X90.539 Y66.132 E0.30615
G1 X90.871 Y66.346 E0.31929
G1 X91.482 Y66.776 E0.34414
G1 X91.599 Y66.861 E0.34895
G1 X92.949 Y67.874 E0.40508
G1 X93.331 Y68.169 E0.42114
G1 X95.482 Y69.734 E0.50961
G1 X97.741 Y71.284 E0.60073
G1 X99.958 Y72.714 E0.68848
G1 X102.284 Y74.122 E0.77891
G1 X104.634 Y75.456 E0.86879
G1 X107.019 Y76.722 E0.9586
G1 X109.398 Y77.898 E1.04686
G1 X111.872 Y79.038 E1.13746
G1 X114.333 Y80.086 E1.22643
G1 X116.864 Y81.082 E1.31689
G1 X119.365 Y81.986 E1.40535
G1 X121.939 Y82.834 E1.49548
G1 X124.533 Y83.607 E1.58551
G1 X127.116 Y84.299 E1.67445
G1 X129.752 Y84.927 E1.76458
G1 X132.38 Y85.471 E1.85384
G1 X135.012 Y85.941 E1.94276
G1 X137.7 Y86.344 E2.03317
G1 X140.335 Y86.662 E2.12144
G1 X143.062 Y86.914 E2.21253
G1 X145.72 Y87.083 E2.30111
G1 X148.414 Y87.177 E2.39077
G1 X150.491 Y87.2 E2.45986
G1 X171.669 Y87.201 E3.16424
G1 X172.368 Y87.212 E3.18749
G1 X172.985 Y87.261 E3.20808
G1 X173.591 Y87.39 E3.22868
G1 X174.175 Y87.596 E3.24928
G1 X174.728 Y87.875 E3.26988
G1 X175.24 Y88.223 E3.29047
G1 X175.703 Y88.634 E3.31106
G1 X176.11 Y89.101 E3.33167
G1 X176.453 Y89.617 E3.35228
G1 X176.726 Y90.173 E3.37288
G1 X176.926 Y90.759 E3.39347
G1 X177.022 Y91.194 E3.40829
G1 X177.177 Y92.09 E3.43853
G1 X177.675 Y94.751 E3.52857
G1 X178.252 Y97.414 E3.6192
G1 X178.89 Y99.997 E3.70769
G1 X179.61 Y102.603 E3.79762
G1 X180.398 Y105.165 E3.88677
G1 X181.262 Y107.715 E3.97632
G1 X182.211 Y110.278 E4.06722
G1 X182.708 Y111.526 E4.1119
G1 X182.814 Y111.812 E4.12204
G1 X183.077 Y112.577 E4.14895
G1 X183.121 Y112.711 E4.15364
G1 X183.301 Y113.289 E4.17377
G1 X183.447 Y113.891 E4.19438
G1 X183.513 Y114.507 E4.21498
G1 X183.5 Y115.126 E4.23558
G1 X183.019 Y118.606 E4.35242
G1 X182.731 Y121.232 E4.44029
G1 X182.641 Y122.412 E4.47965
G1 X182.623 Y122.54 E4.48395
G1 X182.507 Y123.88 E4.52868
G1 X182.433 Y124.412 E4.54655
G1 X181.951 Y126.987 E4.63368
G1 X181.536 Y129.614 E4.72214
G1 X181.188 Y132.316 E4.81275
G1 X180.921 Y134.98 E4.9018
G1 X180.726 Y137.697 E4.9924
G1 X180.61 Y140.363 E5.08115
G1 X180.569 Y143.025 E5.1697
G1 X180.605 Y145.757 E5.26058
G1 X180.717 Y148.455 E5.35039
G1 X180.902 Y151.108 E5.43884
G1 X181.167 Y153.8 E5.52881
G1 X181.505 Y156.466 E5.61819
G1 X181.924 Y159.153 E5.70864
G1 X182.412 Y161.79 E5.79784
G1 X182.972 Y164.401 E5.88666
G1 X183.808 Y167.768 E6.00204
G1 X184.092 Y168.833 E6.0387
G1 X184.213 Y169.441 E6.05932
G1 X184.254 Y170.059 E6.07992
G1 X184.239 Y170.451 E6.09297
G1 X184.164 Y171.378 E6.1239
G1 X184.086 Y172.175 E6.15054
G1 X184.004 Y172.904 E6.17494
G1 X183.969 Y173.155 E6.18337
G1 X183.855 Y173.835 E6.2063
G1 X183.805 Y174.111 E6.21563
G1 X183.665 Y174.827 E6.23989
G1 X183.507 Y175.426 E6.2605
G1 X183.273 Y176 E6.28111
G1 X182.968 Y176.538 E6.30168
G1 X182.595 Y177.033 E6.3223
G1 X182.162 Y177.476 E6.3429
G1 X181.839 Y177.742 E6.35682
G1 X181.355 Y178.106 E6.37696
G1 X181.238 Y178.191 E6.38177
G1 X180.694 Y178.575 E6.40392
G1 X180.166 Y178.899 E6.42452
G1 X179.601 Y179.152 E6.44511
G1 X179.008 Y179.331 E6.46571
G1 X178.396 Y179.431 E6.48634
G1 X178.011 Y179.453 E6.49917
G1 X177.276 Y179.466 E6.52362
G1 X177.118 Y179.466 E6.52887
G1 X176.593 Y179.458 E6.54633
G1 X175.975 Y179.409 E6.56695
G1 X175.37 Y179.281 E6.58752
G1 X174.857 Y179.105 E6.60556
G1 X173.871 Y178.703 E6.64098
G1 X173.233 Y178.428 E6.66408
G1 X172.603 Y178.145 E6.68705
G1 X171.882 Y177.743 E6.71451
G1 X171.415 Y177.425 E6.7333
G1 X170.626 Y176.859 E6.7656
G1 X169.831 Y176.273 E6.79845
G1 X167.602 Y174.68 E6.88957
G1 X165.325 Y173.147 E6.98087
G1 X163.089 Y171.732 E7.06888
G1 X160.763 Y170.351 E7.15885
G1 X158.398 Y169.037 E7.24883
G1 X156.011 Y167.795 E7.33833
G1 X153.613 Y166.635 E7.42693
G1 X151.125 Y165.516 E7.51767
G1 X148.634 Y164.477 E7.60744
G1 X146.157 Y163.53 E7.69564
G1 X143.6 Y162.632 E7.78577
G1 X141.006 Y161.802 E7.87636
G1 X138.453 Y161.064 E7.96475
G1 X135.858 Y160.394 E8.05389
G1 X133.17 Y159.778 E8.14561
G1 X130.575 Y159.263 E8.2336
G1 X127.932 Y158.815 E8.32276
G1 X125.252 Y158.438 E8.41278
G1 X122.571 Y158.138 E8.50251
G1 X119.919 Y157.917 E8.59102
G1 X117.211 Y157.767 E8.68122
G1 X113.271 Y157.687 E8.8123
G1 X93.91 Y157.687 E9.45625
G1 X93.211 Y157.677 E9.4795
G1 X92.594 Y157.628 E9.50008
G1 X91.988 Y157.5 E9.52068
G1 X91.403 Y157.295 E9.5413
G1 X90.85 Y157.017 E9.56189
G1 X90.337 Y156.669 E9.58251
G1 X89.874 Y156.259 E9.60307
G1 X89.466 Y155.792 E9.6237
G1 X89.123 Y155.277 E9.64428
G1 X88.848 Y154.721 E9.66491
G1 X88.648 Y154.135 E9.68551
G1 X88.55 Y153.692 E9.7006
G1 X88.32 Y152.357 E9.74565
G1 X87.809 Y149.631 E9.8379
G1 X87.24 Y147.003 E9.92733
G1 X86.599 Y144.406 E10.0163
G1 X85.881 Y141.81 E10.10589
G1 X85.091 Y139.239 E10.19534
G1 X84.221 Y136.67 E10.28556
G1 X83.287 Y134.15 E10.37494
G1 X82.477 Y132.121 E10.44761
G1 X82.396 Y131.902 E10.45537
G1 X82.133 Y131.137 E10.48228
G1 X81.925 Y130.476 E10.50533
G1 X81.779 Y129.874 E10.52593
G1 X81.712 Y129.259 E10.5465
G1 X81.744 Y128.451 E10.5734
G1 X81.877 Y127.388 E10.60903
G1 X82.081 Y125.497 E10.67229
G1 X82.193 Y124.556 E10.70381
G1 X82.255 Y124.166 E10.71694
G1 X82.39 Y123.507 E10.73932
G1 X82.708 Y122.044 E10.78911
G1 X83.25 Y119.378 E10.8796
G1 X83.71 Y116.732 E10.96893
G1 X84.099 Y114.044 E11.05926
G1 X84.407 Y111.39 E11.14812
G1 X84.643 Y108.698 E11.238
G1 X84.801 Y106.012 E11.3275
G1 X84.884 Y103.311 E11.41737
G1 X84.891 Y100.612 E11.50714
G1 X84.822 Y97.951 E11.59568
G1 X84.676 Y95.256 E11.68545
G1 X84.454 Y92.565 E11.77525
G1 X84.156 Y89.885 E11.86494
G1 X83.782 Y87.212 E11.95471
G1 X83.329 Y84.531 E12.04514
G1 X82.814 Y81.935 E12.13317
G1 X82.219 Y79.322 E12.2223
G1 X81.446 Y76.339 E12.3248
G1 X81.345 Y75.966 E12.33765
G1 X81.171 Y75.259 E12.36186
G1 X80.864 Y73.945 E12.40675
G1 X80.717 Y73.271 E12.42969
G1 X80.625 Y72.658 E12.45031
G1 X80.612 Y72.039 E12.4709
G1 X80.678 Y71.423 E12.4915
G1 X80.819 Y70.838 E12.51152
G1 X81.031 Y70.148 E12.53553
G1 X81.076 Y70.009 E12.54039
G1 X81.256 Y69.481 E12.55894
G1 X81.493 Y68.909 E12.57953
G1 X81.802 Y68.372 E12.60014
G1 X82.177 Y67.88 E12.62072
G0 F3600 X82.529 Y68.085
G1 F1500 X83.149 Y67.517 E12.64868
G1 X83.719 Y67.087 E12.67243
G1 X83.832 Y67.005 E12.67707
G1 X84.291 Y66.681 E12.69576
G1 X84.797 Y66.373 E12.71546
G1 X85.34 Y66.135 E12.73518
G1 X85.91 Y65.973 E12.75489
G1 X86.75 Y65.877 E12.78301
G1 X87.629 Y65.863 E12.81225
G1 X88.173 Y65.871 E12.83035
G1 X88.764 Y65.92 E12.85007
G1 X89.343 Y66.048 E12.86979
G1 X89.899 Y66.252 E12.88949
G1 X90.64 Y66.673 E12.91784
G1 X91.359 Y67.181 E12.94712
G1 X92.704 Y68.191 E13.00306
G1 X93.058 Y68.464 E13.01793
G1 X95.284 Y70.084 E13.1095
G1 X97.503 Y71.606 E13.19899
G1 X99.765 Y73.066 E13.28854
G1 X102.059 Y74.454 E13.37772
G1 X104.456 Y75.814 E13.46938
G1 X106.806 Y77.062 E13.55788
G1 X109.236 Y78.264 E13.64805
G1 X111.713 Y79.405 E13.73875
G1 X114.197 Y80.463 E13.82855
G1 X116.699 Y81.447 E13.91798
G1 X119.241 Y82.366 E14.00788
G1 X121.805 Y83.211 E14.09767
G1 X124.421 Y83.99 E14.18845
G1 X127.025 Y84.688 E14.27812
G1 X129.683 Y85.321 E14.369
G1 X132.265 Y85.856 E14.4567
G1 X134.99 Y86.343 E14.54877
G1 X137.63 Y86.738 E14.63755
G1 X140.319 Y87.063 E14.72764
G1 X143.002 Y87.31 E14.81726
G1 X145.717 Y87.483 E14.90774
G1 X148.395 Y87.577 E14.99687
G1 X150.487 Y87.6 E15.06645
G1 X171.662 Y87.601 E15.77073
G1 X172.361 Y87.612 E15.79399
G1 X172.952 Y87.661 E15.81371
G1 X173.531 Y87.789 E15.83343
G1 X174.087 Y87.994 E15.85314
G1 X174.611 Y88.272 E15.87287
G1 X175.093 Y88.618 E15.8926
G1 X175.524 Y89.025 E15.91232
G1 X175.896 Y89.487 E15.93205
G1 X176.203 Y89.994 E15.95176
G1 X176.438 Y90.538 E15.97147
G1 X176.628 Y91.262 E15.99637
G1 X176.784 Y92.166 E16.02688
G1 X177.284 Y94.838 E16.11729
G1 X177.858 Y97.481 E16.20725
G1 X178.504 Y100.103 E16.29707
G1 X179.229 Y102.722 E16.38745
G1 X180.019 Y105.295 E16.47697
G1 X180.895 Y107.878 E16.56769
G1 X181.817 Y110.368 E16.656
G1 X182.306 Y111.594 E16.6999
G1 X182.436 Y111.942 E16.71226
G1 X182.699 Y112.707 E16.73916
G1 X182.919 Y113.408 E16.7636
G1 X183.057 Y113.984 E16.7833
G1 X183.116 Y114.574 E16.80302
G1 X183.067 Y115.384 E16.83001
G1 X183.004 Y115.793 E16.84377
G1 X182.624 Y118.541 E16.93604
G1 X182.331 Y121.222 E17.02574
G1 X182.242 Y122.381 E17.06441
G1 X182.226 Y122.49 E17.06807
G1 X182.109 Y123.846 E17.11334
G1 X182.04 Y124.339 E17.1299
G1 X181.556 Y126.923 E17.21734
G1 X181.138 Y129.572 E17.30653
G1 X180.792 Y132.261 E17.39671
G1 X180.522 Y134.948 E17.48653
G1 X180.328 Y137.651 E17.57666
G1 X180.21 Y140.374 E17.66731
G1 X180.169 Y143.024 E17.75546
G1 X180.205 Y145.78 E17.84713
G1 X180.316 Y148.461 E17.93638
G1 X180.504 Y151.141 E18.02574
G1 X180.77 Y153.853 E18.11637
G1 X181.112 Y156.546 E18.20666
G1 X181.522 Y159.175 E18.29516
G1 X182.023 Y161.883 E18.38675
G1 X182.582 Y164.491 E18.47547
G1 X183.434 Y167.918 E18.59292
G1 X183.705 Y168.936 E18.62796
G1 X183.819 Y169.518 E18.64768
G1 X183.854 Y170.11 E18.66741
G1 X183.84 Y170.419 E18.6777
G1 X183.766 Y171.339 E18.70839
G1 X183.688 Y172.13 E18.73483
G1 X183.606 Y172.859 E18.75923
G1 X183.574 Y173.089 E18.76695
G1 X183.462 Y173.763 E18.78968
G1 X183.412 Y174.034 E18.79884
G1 X183.272 Y174.75 E18.82311
G1 X183.119 Y175.323 E18.84283
G1 X182.891 Y175.871 E18.86258
G1 X182.591 Y176.382 E18.88228
G1 X182.225 Y176.849 E18.90202
G1 X181.599 Y177.423 E18.93027
G1 X181.115 Y177.787 E18.95041
G1 X180.463 Y178.249 E18.97699
G1 X179.957 Y178.557 E18.99669
G1 X179.414 Y178.795 E19.01641
G1 X178.844 Y178.957 E19.03612
G1 X178.004 Y179.053 E19.06424
G1 X177.269 Y179.066 E19.08869
G1 X177.124 Y179.066 E19.09351
G1 X176.599 Y179.058 E19.11097
G1 X176.008 Y179.01 E19.1307
G1 X175.429 Y178.882 E19.15042
G1 X175.008 Y178.735 E19.16525
G1 X174.029 Y178.335 E19.20042
G1 X173.397 Y178.063 E19.22331
G1 X172.767 Y177.78 E19.24628
G1 X172.106 Y177.411 E19.27146
G1 X171.647 Y177.099 E19.28992
G1 X170.863 Y176.537 E19.322
G1 X170.063 Y175.948 E19.35504
G1 X167.795 Y174.327 E19.44776
G1 X165.557 Y172.82 E19.5375
G1 X163.286 Y171.384 E19.62687
G1 X160.971 Y170.009 E19.71642
G1 X158.611 Y168.698 E19.80622
G1 X156.177 Y167.432 E19.89747
G1 X153.773 Y166.268 E19.9863
G1 X151.295 Y165.154 E20.07667
G1 X148.794 Y164.111 E20.1668
G1 X146.253 Y163.139 E20.25728
G1 X143.75 Y162.26 E20.34552
G1 X141.134 Y161.423 E20.43687
G1 X138.559 Y160.679 E20.52602
G1 X135.934 Y160 E20.6162
G1 X133.272 Y159.391 E20.70703
G1 X130.648 Y158.87 E20.796
G1 X127.983 Y158.419 E20.8859
G1 X125.32 Y158.044 E20.97535
G1 X122.612 Y157.74 E21.06598
G1 X119.903 Y157.515 E21.15639
G1 X117.24 Y157.368 E21.2451
G1 X113.28 Y157.287 E21.37684
G1 X93.916 Y157.287 E22.02089
G1 X93.217 Y157.277 E22.04414
G1 X92.626 Y157.228 E22.06386
G1 X92.047 Y157.101 E22.08358
G1 X91.49 Y156.897 E22.10331
G1 X90.966 Y156.619 E22.12304
G1 X90.484 Y156.274 E22.14275
G1 X90.052 Y155.868 E22.16247
G1 X89.68 Y155.406 E22.1822
G1 X89.372 Y154.899 E22.20193
G1 X89.136 Y154.356 E22.22162
G1 X88.944 Y153.624 E22.24679
G1 X88.713 Y152.283 E22.29205
G1 X88.2 Y149.544 E22.38473
G1 X87.635 Y146.936 E22.47349
G1 X86.985 Y144.3 E22.56379
G1 X86.263 Y141.69 E22.65386
G1 X85.469 Y139.109 E22.74367
G1 X84.599 Y136.539 E22.83392
G1 X83.655 Y133.99 E22.92432
G1 X82.849 Y131.973 E22.99657
G1 X82.774 Y131.772 E23.0037
G1 X82.511 Y131.007 E23.03061
G1 X82.307 Y130.357 E23.05327
G1 X82.169 Y129.78 E23.073
G1 X82.109 Y129.19 E23.09272
G1 X82.141 Y128.5 E23.1157
G1 X82.277 Y127.417 E23.152
G1 X82.478 Y125.544 E23.21465
G1 X82.59 Y124.603 E23.24617
G1 X82.647 Y124.246 E23.2582
G1 X82.781 Y123.592 E23.2804
G1 X83.094 Y122.155 E23.32932
G1 X83.644 Y119.448 E23.42119
G1 X84.106 Y116.792 E23.51086
G1 X84.494 Y114.106 E23.60112
G1 X84.808 Y111.404 E23.6916
G1 X85.043 Y108.721 E23.78117
G1 X85.2 Y106.048 E23.87023
G1 X85.284 Y103.325 E23.96084
G1 X85.291 Y100.639 E24.05018
G1 X85.221 Y97.918 E24.14071
G1 X85.073 Y95.202 E24.23118
G1 X84.852 Y92.524 E24.32055
G1 X84.556 Y89.857 E24.4098
G1 X84.179 Y87.159 E24.50041
G1 X83.725 Y84.473 E24.59101
G1 X83.205 Y81.847 E24.68005
G1 X82.601 Y79.199 E24.77038
G1 X81.85 Y76.302 E24.86992
G1 X81.733 Y75.87 E24.88481
G1 X81.56 Y75.168 E24.90886
G1 X81.255 Y73.86 E24.95353
G1 X81.108 Y73.186 E24.97647
G1 X81.021 Y72.599 E24.99621
G1 X81.014 Y72.006 E25.01593
G1 X81.086 Y71.418 E25.03564
G1 X81.201 Y70.956 E25.05147
G1 X81.454 Y70.138 E25.07995
G1 X81.634 Y69.61 E25.0985
G1 X81.863 Y69.063 E25.11823
G1 X82.163 Y68.552 E25.13794
G1 X82.529 Y68.085 E25.15767
G0 F3600 X82.88 Y68.295
G1 F1500 X83.39 Y67.837 E25.18047
G1 X84.062 Y67.332 E25.20843
G1 X84.521 Y67.008 E25.22711
G1 X85.005 Y66.716 E25.24592
G1 X85.525 Y66.494 E25.26472
G1 X86.071 Y66.348 E25.28352
G1 X86.757 Y66.277 E25.30646
G1 X87.623 Y66.263 E25.33526
G1 X88.167 Y66.271 E25.35336
G1 X88.73 Y66.32 E25.37216
G1 X89.281 Y66.447 E25.39096
G1 X89.808 Y66.65 E25.40975
G1 X90.41 Y67 E25.43291
G1 X91.021 Y67.43 E25.45776
G1 X91.119 Y67.501 E25.46178
G1 X92.46 Y68.507 E25.51754
G1 X92.862 Y68.818 E25.53444
G1 X95.027 Y70.393 E25.62349
G1 X97.266 Y71.929 E25.7138
G1 X99.563 Y73.411 E25.80472
G1 X101.876 Y74.811 E25.89464
G1 X104.25 Y76.158 E25.98543
G1 X106.634 Y77.423 E26.07519
G1 X109.08 Y78.633 E26.16596
G1 X111.526 Y79.76 E26.25553
G1 X114.043 Y80.832 E26.34652
G1 X116.565 Y81.824 E26.43666
G1 X119.117 Y82.746 E26.52691
G1 X121.703 Y83.598 E26.61747
G1 X124.279 Y84.366 E26.70687
G1 X126.934 Y85.078 E26.7983
G1 X129.574 Y85.706 E26.88856
G1 X132.22 Y86.255 E26.97844
G1 X134.897 Y86.733 E27.06888
G1 X137.594 Y87.137 E27.15959
G1 X140.27 Y87.46 E27.24924
G1 X142.975 Y87.709 E27.33959
G1 X145.676 Y87.882 E27.42961
G1 X148.419 Y87.978 E27.52089
G1 X150.482 Y88 E27.58951
G1 X171.656 Y88 E28.29376
G1 X172.355 Y88.011 E28.31702
G1 X172.918 Y88.06 E28.33581
G1 X173.469 Y88.188 E28.35463
G1 X173.996 Y88.392 E28.37342
G1 X174.489 Y88.669 E28.39223
G1 X174.939 Y89.012 E28.41105
G1 X175.335 Y89.415 E28.42984
G1 X175.671 Y89.87 E28.44865
G1 X175.939 Y90.367 E28.46743
G1 X176.134 Y90.898 E28.48625
G1 X176.234 Y91.33 E28.501
G1 X176.392 Y92.243 E28.53181
G1 X176.894 Y94.925 E28.62257
G1 X177.464 Y97.556 E28.7121
G1 X178.122 Y100.224 E28.8035
G1 X178.837 Y102.808 E28.89267
G1 X179.648 Y105.446 E28.98447
G1 X180.509 Y107.985 E29.07364
G1 X181.46 Y110.555 E29.16478
G1 X181.96 Y111.809 E29.20968
G1 X182.058 Y112.073 E29.21905
G1 X182.321 Y112.838 E29.24595
G1 X182.537 Y113.527 E29.26997
G1 X182.667 Y114.077 E29.28877
G1 X182.717 Y114.64 E29.30757
G1 X182.672 Y115.324 E29.33037
G1 X182.599 Y115.799 E29.34635
G1 X182.228 Y118.478 E29.4363
G1 X181.933 Y121.176 E29.52658
G1 X181.843 Y122.351 E29.56577
G1 X181.827 Y122.461 E29.56947
G1 X181.71 Y123.811 E29.61454
G1 X181.647 Y124.265 E29.62978
G1 X181.162 Y126.853 E29.71736
G1 X180.74 Y129.53 E29.80749
G1 X180.395 Y132.207 E29.89727
G1 X180.123 Y134.913 E29.98772
G1 X179.928 Y137.642 E30.07872
G1 X179.812 Y140.315 E30.16771
G1 X179.77 Y143.05 E30.25869
G1 X179.805 Y145.767 E30.34906
G1 X179.919 Y148.505 E30.44021
G1 X180.105 Y151.172 E30.52913
G1 X180.374 Y153.91 E30.62063
G1 X180.713 Y156.582 E30.71022
G1 X181.134 Y159.278 E30.80097
G1 X181.623 Y161.927 E30.89057
G1 X182.192 Y164.581 E30.98085
G1 X183.044 Y168.007 E31.09826
G1 X183.319 Y169.039 E31.13379
G1 X183.426 Y169.595 E31.15262
G1 X183.441 Y170.388 E31.179
G1 X183.368 Y171.3 E31.20943
